svg/color/baby.svg

<svg width="64" height="65" viewBox="0 0 64 65" fill="none" xmlns="http://www.w3.org/2000/svg">
<path d="M0 32.3037C0 14.6306 14.3269 0.303711 32 0.303711C49.6731 0.303711 64 14.6306 64 32.3037C64 49.9768 49.6731 64.3037 32 64.3037C14.3269 64.3037 0 49.9768 0 32.3037Z" fill="#CE6533"/>
<path d="M32 0.803711C49.397 0.803711 63.5 14.9067 63.5 32.3037C63.5 49.7007 49.397 63.8037 32 63.8037C14.603 63.8037 0.5 49.7007 0.5 32.3037C0.5 14.9067 14.603 0.803711 32 0.803711Z" stroke="#070B14" stroke-opacity="0.15"/>
<path d="M13.0874 20.3305C12.8965 19.8263 13.024 19.2602 13.4143 18.8801L18.7246 13.7071C19.1149 13.327 19.6963 13.2029 20.2137 13.3889L31.537 17.4408C31.815 17.5403 32 17.7983 32 18.0869V20.502C32 20.6847 31.9256 20.8596 31.793 20.9887L29.0369 23.6733C28.8419 23.8633 28.5512 23.9255 28.2925 23.8324L25.2505 22.7399L21.9085 21.5387C21.6253 21.4368 21.3501 21.7052 21.4545 21.9807L23.8096 28.1991C23.905 28.4513 23.8413 28.7342 23.6463 28.9243L21.1961 31.3104C20.9199 31.5792 20.9199 32.0155 21.1961 32.2842L23.6594 34.6835C23.8544 34.8735 23.9181 35.1568 23.8227 35.4087L21.4676 41.6267C21.3632 41.9022 21.6384 42.1706 21.9216 42.0687L28.3052 39.7751C28.5643 39.6819 28.855 39.7441 29.05 39.9342L31.793 42.6059C31.9256 42.7351 32 42.9103 32 43.093V45.5084C32 45.7967 31.8157 46.0547 31.5377 46.1546L20.2275 50.2185C19.7098 50.4045 19.1283 50.2804 18.7384 49.9003L13.427 44.7274C13.0371 44.3473 12.9096 43.7808 13.1005 43.2769L17.2589 32.2977C17.3753 31.9899 17.3753 31.6518 17.2589 31.3441L13.0874 20.3305Z" fill="#E4E5DB"/>
<path d="M50.9172 43.2767C51.098 43.7809 50.9773 44.347 50.6079 44.7271L45.5767 49.9001C45.2073 50.2801 44.6564 50.4046 44.166 50.2186L33.4389 46.1664C33.1752 46.0669 33 45.8089 33 45.5203V43.1055C33 42.9229 33.0705 42.7476 33.1961 42.6185L35.8075 39.9339C35.9922 39.7439 36.2676 39.682 36.5127 39.7748L39.3943 40.8674L42.5604 42.0688C42.8286 42.1704 43.0897 41.9023 42.9905 41.6265L40.7593 35.4082C40.6689 35.1562 40.7293 34.873 40.9143 34.683L43.2356 32.2968C43.497 32.0281 43.497 31.5921 43.2356 31.323L40.9019 28.9238C40.7172 28.7337 40.6565 28.4505 40.7472 28.1986L42.9784 21.9806C43.0773 21.7051 42.8166 21.437 42.5483 21.5386L36.5003 23.8322C36.2552 23.9254 35.9798 23.8632 35.7951 23.6731L33.1961 21.0014C33.0708 20.8722 33 20.697 33 20.5147V18.0989C33 17.8107 33.1749 17.5527 33.4379 17.4531L44.1532 13.3888C44.6434 13.2028 45.1942 13.3273 45.564 13.707L50.5955 18.8803C50.9649 19.2601 51.0859 19.8265 50.9048 20.3307L46.9653 31.3099C46.855 31.6174 46.855 31.9554 46.9653 32.2632L50.9172 43.2767Z" fill="#E4E5DB"/>
</svg>

<svg xmlns="http://www.w3.org/2000/svg" width="64" height="65" fill="none" viewBox="0 0 64 65"><path fill="#CE6533" d="M0 32.304c0-17.673 14.327-32 32-32s32 14.327 32 32-14.327 32-32 32-32-14.327-32-32"/><path stroke="#070B14" stroke-opacity=".15" d="M32 .804c17.397 0 31.5 14.103 31.5 31.5s-14.103 31.5-31.5 31.5S.5 49.7.5 32.304 14.603.804 32 .804Z"/><path fill="#E4E5DB" d="M13.087 20.33a1.35 1.35 0 0 1 .327-1.45l5.31-5.173c.39-.38.972-.504 1.49-.318l11.323 4.052a.69.69 0 0 1 .463.646v2.415a.68.68 0 0 1-.207.487l-2.756 2.684a.72.72 0 0 1-.744.16L25.25 22.74l-3.341-1.201c-.284-.102-.559.166-.454.442l2.355 6.218a.68.68 0 0 1-.164.725l-2.45 2.386a.676.676 0 0 0 0 .974l2.463 2.4c.195.19.26.473.164.725l-2.355 6.218c-.105.275.17.544.454.442l6.383-2.294a.72.72 0 0 1 .745.16l2.743 2.67a.68.68 0 0 1 .207.488v2.415a.69.69 0 0 1-.462.647l-11.31 4.063a1.44 1.44 0 0 1-1.49-.318l-5.311-5.173a1.35 1.35 0 0 1-.326-1.45l4.158-10.98a1.35 1.35 0 0 0 0-.953zm37.83 22.947c.181.504.06 1.07-.31 1.45l-5.03 5.173c-.37.38-.92.505-1.411.319l-10.727-4.053A.69.69 0 0 1 33 45.52v-2.415c0-.182.07-.357.196-.486l2.611-2.685a.66.66 0 0 1 .706-.16l2.881 1.093 3.166 1.202c.269.101.53-.167.43-.443l-2.23-6.218a.7.7 0 0 1 .154-.725l2.322-2.386a.703.703 0 0 0 0-.974l-2.334-2.4a.7.7 0 0 1-.155-.724l2.231-6.218c.1-.276-.161-.544-.43-.442L36.5 23.832a.66.66 0 0 1-.705-.159l-2.599-2.672a.7.7 0 0 1-.196-.486v-2.416c0-.288.175-.546.438-.646l10.715-4.064a1.31 1.31 0 0 1 1.411.318l5.032 5.173c.369.38.49.947.309 1.45l-3.94 10.98c-.11.307-.11.645 0 .953z"/></svg>
